raw-svg/sort.svg

<svg viewBox="0 0 24 24" xmlns="http://www.w3.org/2000/svg"><path d="m18 10.75h-12a.74.74 0 0 1 -.69-.46.75.75 0 0 1 .16-.82l6-6a.75.75 0 0 1 1.06 0l6 6a.75.75 0 0 1 .16.82.74.74 0 0 1 -.69.46zm-10.19-1.5h8.38l-4.19-4.19z"/><path d="m12 20.75a.74.74 0 0 1 -.53-.22l-6-6a.75.75 0 0 1 -.16-.82.74.74 0 0 1 .69-.46h12a.74.74 0 0 1 .69.46.75.75 0 0 1 -.16.82l-6 6a.74.74 0 0 1 -.53.22zm-4.19-6 4.19 4.19 4.19-4.19z"/></svg>

<svg xmlns="http://www.w3.org/2000/svg" viewBox="0 0 24 24"><g id="sort"><g id="_Path_" data-name="&lt;Path&gt;"><path d="M18,10.75H6a.74.74,0,0,1-.69-.46.75.75,0,0,1,.16-.82l6-6a.75.75,0,0,1,1.06,0l6,6a.75.75,0,0,1,.16.82A.74.74,0,0,1,18,10.75ZM7.81,9.25h8.38L12,5.06Z"/></g><g id="_Path_2" data-name="&lt;Path&gt;"><path d="M12,20.75a.74.74,0,0,1-.53-.22l-6-6a.75.75,0,0,1-.16-.82A.74.74,0,0,1,6,13.25H18a.74.74,0,0,1,.69.46.75.75,0,0,1-.16.82l-6,6A.74.74,0,0,1,12,20.75Zm-4.19-6L12,18.94l4.19-4.19Z"/></g></g></svg>
